X: 263
T: the Train of Artillery's Grenadiers March
B: C. & S. Thompson, "The Compleat Tutor for the Fife" c.1760 p.26 #3
S: http://imslp.org/wiki/The_Compleat_Tutor_for_the_Fife_(Anonymous)
Z: 2014 John Chambers <jc:trillian.mit.edu>
M: 2/4
L: 1/8
K: G
% - - - - - - - - - - - - - - - - - - - - - - - - -
d |\
GB/c/ dg | f2 gd | e2 dc | TB3 c |\
d2 BG | efgG | GA/B/ cB | A3 A |\
B^cde | fgad | e2 d/^c/d/e/ | d3 :: B/c/ |
d2 gd | c2 ac | BdGB | A2 DB/c/ |\
d2 gd | c2 ac | BdGB | A2 Bc/d/ |\
e3 g | fdgc | BdDF | G3 :|
% - - - - - - - - - - - - - - - - - - - - - - - - -
